img/logo.svg

<svg fill="none" height="24" viewBox="0 0 24 24" width="24" xmlns="http://www.w3.org/2000/svg"><g stroke="#eb4a97" stroke-linecap="round" stroke-linejoin="round" stroke-width="1.5"><path d="m2 18.2222c.18866.8502.56908 1.7778 1.56235 1.7778 1.71883 0 2.14853-1.7778 3.43765-8 1.28912-6.22222 1.71882-8 3.4376-8 .9933 0 1.3737.92763 1.5624 1.77778m-7.08333 4h5.52093"/><path d="m21 12c1.3804 3.253 1.2854 4.9808 0 8"/><path d="m12 12c-1.3804 3.253-1.2854 4.9808 0 8"/></g><path d="m14 17.25c-.4142 0-.75.3358-.75.75s.3358.75.75.75zm5-2.5c.4142 0 .75-.3358.75-.75s-.3358-.75-.75-.75zm-2.9572.2551.6815-.3131zm.9144 1.9898.6815-.3132zm.4413.7362.4801-.5762zm1.3074 1.0189c.4142 0 .75-.3358.75-.75s-.3358-.75-.75-.75zm-.9795-.8304-.2629.7024zm-3.4323-4.6696c-.4142 0-.75.3358-.75.75s.3358.75.75.75zm.9795.8304-.2629.7024zm.3279.1885-.4801.5762zm-1.6015 4.4811c.767 0 1.3785-.3893 1.8494-.8237.4662-.4301.8843-.9895 1.2499-1.4753.3869-.5142.7214-.9548 1.0683-1.2747.3422-.3156.6045-.4263.8324-.4263v-1.5c-.767 0-1.3785.3893-1.8494.8237-.4662.4301-.8843.9895-1.2499 1.4753-.3869.5142-.7214.9548-1.0683 1.2747-.3422.3156-.6045.4263-.8324.4263zm1.3613-3.4317.9144 1.9897 1.363-.6263-.9144-1.9897zm.9144 1.9897c.1544.336.3154.7266.6427.9993l.9602-1.1524c.0079.0066-.0038.0029-.043-.0659-.0467-.0821-.1002-.1968-.1969-.4073zm2.4302-.058c-.5721 0-.66-.0116-.7166-.0328l-.5258 1.4048c.3731.1396.7949.128 1.2424.128zm-1.7875 1.0573c.1631.1359.3486.2412.5451.3147l.5258-1.4048c-.0476-.0178-.0844-.0403-.1107-.0623zm-2.6243-3.5573c.5721 0 .66.0116.7166.0328l.5258-1.4048c-.3731-.1396-.7949-.128-1.2424-.128zm2.4302-.058c-.1544-.336-.3154-.7266-.6427-.9993l-.9602 1.1524c-.0079-.0066.0038-.0029.043.0659.0467.0821.1002.1968.1969.4073zm-1.7136.0908c.0476.0178.0844.0403.1107.0623l.9602-1.1524c-.1631-.1359-.3486-.2412-.5451-.3147z" fill="#eb4a97"/></svg>

<svg width="24" height="24" viewBox="0 0 24 24" fill="none" xmlns="http://www.w3.org/2000/svg">
<path d="M2 18.2222C2.18866 19.0724 2.56908 20 3.56235 20C5.28118 20 5.71088 18.2222 7 12C8.28912 5.77778 8.71882 4 10.4376 4C11.4309 4 11.8113 4.92763 12 5.77778M4.91667 9.77778H10.4376" stroke="#EB4A97" stroke-width="1.5" stroke-linecap="round" stroke-linejoin="round"/>
<path d="M21 12C22.3804 15.253 22.2854 16.9808 21 20" stroke="#EB4A97" stroke-width="1.5" stroke-linecap="round" stroke-linejoin="round"/>
<path d="M12 12C10.6196 15.253 10.7146 16.9808 12 20" stroke="#EB4A97" stroke-width="1.5" stroke-linecap="round" stroke-linejoin="round"/>
<path d="M14 17.25C13.5858 17.25 13.25 17.5858 13.25 18C13.25 18.4142 13.5858 18.75 14 18.75V17.25ZM19 14.75C19.4142 14.75 19.75 14.4142 19.75 14C19.75 13.5858 19.4142 13.25 19 13.25V14.75ZM16.0428 15.0051L16.7243 14.692V14.692L16.0428 15.0051ZM16.9572 16.9949L17.6387 16.6817L16.9572 16.9949ZM17.3985 17.7311L17.8786 17.1549L17.8786 17.1549L17.3985 17.7311ZM18.7059 18.75C19.1201 18.75 19.4559 18.4142 19.4559 18C19.4559 17.5858 19.1201 17.25 18.7059 17.25V18.75ZM17.7264 17.9196L17.4635 18.622L17.4635 18.622L17.7264 17.9196ZM14.2941 13.25C13.8799 13.25 13.5441 13.5858 13.5441 14C13.5441 14.4142 13.8799 14.75 14.2941 14.75V13.25ZM15.2736 14.0804L15.0107 14.7828L15.0107 14.7828L15.2736 14.0804ZM15.6015 14.2689L15.1214 14.8451L15.1214 14.8451L15.6015 14.2689ZM14 18.75C14.767 18.75 15.3785 18.3607 15.8494 17.9263C16.3156 17.4962 16.7337 16.9368 17.0993 16.451C17.4862 15.9368 17.8207 15.4962 18.1676 15.1763C18.5098 14.8607 18.7721 14.75 19 14.75V13.25C18.233 13.25 17.6215 13.6393 17.1506 14.0737C16.6844 14.5038 16.2663 15.0632 15.9007 15.549C15.5138 16.0632 15.1793 16.5038 14.8324 16.8237C14.4902 17.1393 14.2279 17.25 14 17.25V18.75ZM15.3613 15.3183L16.2757 17.308L17.6387 16.6817L16.7243 14.692L15.3613 15.3183ZM16.2757 17.308C16.4301 17.644 16.5911 18.0346 16.9184 18.3073L17.8786 17.1549C17.8865 17.1615 17.8748 17.1578 17.8356 17.089C17.7889 17.0069 17.7354 16.8922 17.6387 16.6817L16.2757 17.308ZM18.7059 17.25C18.1338 17.25 18.0459 17.2384 17.9893 17.2172L17.4635 18.622C17.8366 18.7616 18.2584 18.75 18.7059 18.75V17.25ZM16.9184 18.3073C17.0815 18.4432 17.267 18.5485 17.4635 18.622L17.9893 17.2172C17.9417 17.1994 17.9049 17.1769 17.8786 17.1549L16.9184 18.3073ZM14.2941 14.75C14.8662 14.75 14.9541 14.7616 15.0107 14.7828L15.5365 13.378C15.1634 13.2384 14.7416 13.25 14.2941 13.25V14.75ZM16.7243 14.692C16.5699 14.356 16.4089 13.9654 16.0816 13.6927L15.1214 14.8451C15.1135 14.8385 15.1252 14.8422 15.1644 14.911C15.2111 14.9931 15.2646 15.1078 15.3613 15.3183L16.7243 14.692ZM15.0107 14.7828C15.0583 14.8006 15.0951 14.8231 15.1214 14.8451L16.0816 13.6927C15.9185 13.5568 15.733 13.4515 15.5365 13.378L15.0107 14.7828Z" fill="#EB4A97"/>
</svg>
